frontend/src/images/icons/skill-preferences/Ruby.svg

<svg xmlns="http://www.w3.org/2000/svg" viewBox="0 0 128 128"><linearGradient id="ruby-original-a" gradientUnits="userSpaceOnUse" x1="157.08" y1="2382.05" x2="131.682" y2="2426.892" gradientTransform="matrix(1 0 0 -1 -47.5 2517)"><stop offset="0" stop-color="#FB7655"/><stop offset="0" stop-color="#FB7655"/><stop offset=".41" stop-color="#E42B1E"/><stop offset=".99" stop-color="#900"/><stop offset="1" stop-color="#900"/></linearGradient><path fill="url(#ruby-original-a)" d="M97.078 83.214L28.34 124.031l89.003-6.04 6.855-89.745z"/><linearGradient id="ruby-original-b" gradientUnits="userSpaceOnUse" x1="169.731" y1="2419.72" x2="136.998" y2="2441.685" gradientTransform="matrix(1 0 0 -1 -47.5 2517)"><stop offset="0" stop-color="#871101"/><stop offset="0" stop-color="#871101"/><stop offset=".99" stop-color="#911209"/><stop offset="1" stop-color="#911209"/></linearGradient><path fill="url(#ruby-original-b)" d="M117.488 117.93l-7.649-52.799-20.837 27.514z"/><linearGradient id="ruby-original-c" gradientUnits="userSpaceOnUse" x1="143.542" y1="2380.69" x2="110.81" y2="2402.655" gradientTransform="matrix(1 0 0 -1 -47.5 2517)"><stop offset="0" stop-color="#871101"/><stop offset="0" stop-color="#871101"/><stop offset=".99" stop-color="#911209"/><stop offset="1" stop-color="#911209"/></linearGradient><path fill="url(#ruby-original-c)" d="M117.592 117.93l-56.044-4.399-32.91 10.385z"/><linearGradient id="ruby-original-d" gradientUnits="userSpaceOnUse" x1="74.817" y1="2435.622" x2="79.891" y2="2402.644" gradientTransform="matrix(1 0 0 -1 -47.5 2517)"><stop offset="0" stop-color="#fff"/><stop offset="0" stop-color="#fff"/><stop offset=".23" stop-color="#E57252"/><stop offset=".46" stop-color="#DE3B20"/><stop offset=".99" stop-color="#A60003"/><stop offset="1" stop-color="#A60003"/></linearGradient><path fill="url(#ruby-original-d)" d="M28.717 123.928l14.001-45.867-30.81 6.588z"/><linearGradient id="ruby-original-e" gradientUnits="userSpaceOnUse" x1="109.719" y1="2466.413" x2="111.589" y2="2432.757" gradientTransform="matrix(1 0 0 -1 -47.5 2517)"><stop offset="0" stop-color="#fff"/><stop offset="0" stop-color="#fff"/><stop offset=".23" stop-color="#E4714E"/><stop offset=".56" stop-color="#BE1A0D"/><stop offset=".99" stop-color="#A80D00"/><stop offset="1" stop-color="#A80D00"/></linearGradient><path fill="url(#ruby-original-e)" d="M88.996 92.797l-12.882-50.46-36.866 34.558z"/><linearGradient id="ruby-original-f" gradientUnits="userSpaceOnUse" x1="140.691" y1="2497.523" x2="146.289" y2="2473.401" gradientTransform="matrix(1 0 0 -1 -47.5 2517)"><stop offset="0" stop-color="#fff"/><stop offset="0" stop-color="#fff"/><stop offset=".18" stop-color="#E46342"/><stop offset=".4" stop-color="#C82410"/><stop offset=".99" stop-color="#A80D00"/><stop offset="1" stop-color="#A80D00"/></linearGradient><path fill="url(#ruby-original-f)" d="M121.275 43.047L86.426 14.585l-9.704 31.373z"/><linearGradient id="ruby-original-g" gradientUnits="userSpaceOnUse" x1="123.6" y1="2506.018" x2="147.719" y2="2518.077" gradientTransform="matrix(1 0 0 -1 -47.5 2517)"><stop offset="0" stop-color="#fff"/><stop offset="0" stop-color="#fff"/><stop offset=".54" stop-color="#C81F11"/><stop offset=".99" stop-color="#BF0905"/><stop offset="1" stop-color="#BF0905"/></linearGradient><path fill="url(#ruby-original-g)" d="M104.978 4.437L84.481 15.764 71.551 4.285z"/><linearGradient id="ruby-original-h" gradientUnits="userSpaceOnUse" x1="53.674" y1="2444.028" x2="55.66" y2="2424.153" gradientTransform="matrix(1 0 0 -1 -47.5 2517)"><stop offset="0" stop-color="#fff"/><stop offset="0" stop-color="#fff"/><stop offset=".31" stop-color="#DE4024"/><stop offset=".99" stop-color="#BF190B"/><stop offset="1" stop-color="#BF190B"/></linearGradient><path fill="url(#ruby-original-h)" d="M3.802 100.034l8.586-15.659L5.442 65.72z"/><path fill="#fff" d="M4.981 65.131l6.987 19.821 30.365-6.812L77 45.922l9.783-31.075L71.38 3.969l-26.19 9.802c-8.252 7.675-24.263 22.86-24.84 23.146-.573.291-10.575 19.195-15.369 28.214z"/><linearGradient id="ruby-original-i" gradientUnits="userSpaceOnUse" x1="40.026" y1="2418.781" x2="133.345" y2="2514.739" gradientTransform="matrix(1 0 0 -1 -47.5 2517)"><stop offset="0" stop-color="#BD0012"/><stop offset="0" stop-color="#BD0012"/><stop offset=".07" stop-color="#fff"/><stop offset=".17" stop-color="#fff"/><stop offset=".27" stop-color="#C82F1C"/><stop offset=".33" stop-color="#820C01"/><stop offset=".46" stop-color="#A31601"/><stop offset=".72" stop-color="#B31301"/><stop offset=".99" stop-color="#E82609"/><stop offset="1" stop-color="#E82609"/></linearGradient><path fill="url(#ruby-original-i)" d="M29.519 29.521c17.882-17.73 40.937-28.207 49.785-19.28 8.843 8.926-.534 30.62-18.418 48.345-17.884 17.725-40.653 28.779-49.493 19.852-8.849-8.92.242-31.191 18.126-48.917z"/><linearGradient id="ruby-original-j" gradientUnits="userSpaceOnUse" x1="111.507" y1="2409.102" x2="83.398" y2="2416.039" gradientTransform="matrix(1 0 0 -1 -47.5 2517)"><stop offset="0" stop-color="#8C0C01"/><stop offset="0" stop-color="#8C0C01"/><stop offset=".54" stop-color="#990C00"/><stop offset=".99" stop-color="#A80D0E"/><stop offset="1" stop-color="#A80D0E"/></linearGradient><path fill="url(#ruby-original-j)" d="M28.717 123.909l13.89-46.012 46.135 14.82c-16.68 15.642-35.233 28.865-60.025 31.192z"/><linearGradient id="ruby-original-k" gradientUnits="userSpaceOnUse" x1="159.785" y1="2442.837" x2="134.814" y2="2465.217" gradientTransform="matrix(1 0 0 -1 -47.5 2517)"><stop offset="0" stop-color="#7E110B"/><stop offset="0" stop-color="#7E110B"/><stop offset=".99" stop-color="#9E0C00"/><stop offset="1" stop-color="#9E0C00"/></linearGradient><path fill="url(#ruby-original-k)" d="M77.062 45.831l11.844 46.911c13.934-14.65 26.439-30.401 32.563-49.883l-44.407 2.972z"/><linearGradient id="ruby-original-l" gradientUnits="userSpaceOnUse" x1="168.959" y1="2483.901" x2="156.521" y2="2497.199" gradientTransform="matrix(1 0 0 -1 -47.5 2517)"><stop offset="0" stop-color="#79130D"/><stop offset="0" stop-color="#79130D"/><stop offset=".99" stop-color="#9E120B"/><stop offset="1" stop-color="#9E120B"/></linearGradient><path fill="url(#ruby-original-l)" d="M121.348 43.097c4.74-14.305 5.833-34.825-16.517-38.635l-18.339 10.13 34.856 28.505z"/><path fill="#9E1209" d="M3.802 99.828c.656 23.608 17.689 23.959 24.945 24.167l-16.759-39.14-8.186 14.973z"/><radialGradient id="ruby-original-m" cx="138.703" cy="2464.789" r="30.601" gradientTransform="matrix(1 0 0 -1 -47.5 2517)" gradientUnits="userSpaceOnUse"><stop offset="0" stop-color="#A80D00"/><stop offset="0" stop-color="#A80D00"/><stop offset=".99" stop-color="#7E0E08"/><stop offset="1" stop-color="#7E0E08"/></radialGradient><path fill="url(#ruby-original-m)" d="M77.128 45.904c10.708 6.581 32.286 19.798 32.723 20.041.68.383 9.304-14.542 11.261-22.976l-43.984 2.935z"/><radialGradient id="ruby-original-n" cx="96.325" cy="2424.465" r="40.679" gradientTransform="matrix(1 0 0 -1 -47.5 2517)" gradientUnits="userSpaceOnUse"><stop offset="0" stop-color="#A30C00"/><stop offset="0" stop-color="#A30C00"/><stop offset=".99" stop-color="#800E08"/><stop offset="1" stop-color="#800E08"/></radialGradient><path fill="url(#ruby-original-n)" d="M42.589 77.897l18.57 35.828c10.98-5.955 19.579-13.211 27.454-20.983L42.589 77.897z"/><linearGradient id="ruby-original-o" gradientUnits="userSpaceOnUse" x1="67.509" y1="2393.115" x2="57.373" y2="2427.506" gradientTransform="matrix(1 0 0 -1 -47.5 2517)"><stop offset="0" stop-color="#8B2114"/><stop offset="0" stop-color="#8B2114"/><stop offset=".43" stop-color="#9E100A"/><stop offset=".99" stop-color="#B3100C"/><stop offset="1" stop-color="#B3100C"/></linearGradient><path fill="url(#ruby-original-o)" d="M11.914 84.904l-2.631 31.331c4.964 6.781 11.794 7.371 18.96 6.842-5.184-12.9-15.538-38.696-16.329-38.173z"/><linearGradient id="ruby-original-p" gradientUnits="userSpaceOnUse" x1="145.272" y1="2507.076" x2="167.996" y2="2497.045" gradientTransform="matrix(1 0 0 -1 -47.5 2517)"><stop offset="0" stop-color="#B31000"/><stop offset="0" stop-color="#B31000"/><stop offset=".44" stop-color="#910F08"/><stop offset=".99" stop-color="#791C12"/><stop offset="1" stop-color="#791C12"/></linearGradient><path fill="url(#ruby-original-p)" d="M86.384 14.67l36.891 5.177c-1.969-8.343-8.015-13.727-18.32-15.41L86.384 14.67z"/></svg>

<?xml version="1.0" encoding="UTF-8" standalone="no"?>
<svg
   viewBox="0 0 128 128"
   version="1.1"
   id="svg82"
   sodipodi:docname="Ruby.svg"
   width="64"
   height="64"
   inkscape:version="1.3.2 (091e20ef0f, 2023-11-25, custom)"
   xmlns:inkscape="http://www.inkscape.org/namespaces/inkscape"
   xmlns:sodipodi="http://sodipodi.sourceforge.net/DTD/sodipodi-0.dtd"
   xmlns="http://www.w3.org/2000/svg"
   xmlns:svg="http://www.w3.org/2000/svg">
  <defs
     id="defs82" />
  <sodipodi:namedview
     id="namedview82"
     pagecolor="#ffffff"
     bordercolor="#000000"
     borderopacity="0.25"
     inkscape:showpageshadow="2"
     inkscape:pageopacity="0.0"
     inkscape:pagecheckerboard="0"
     inkscape:deskcolor="#d1d1d1"
     inkscape:zoom="6.25"
     inkscape:cx="64"
     inkscape:cy="64"
     inkscape:window-width="1920"
     inkscape:window-height="1004"
     inkscape:window-x="0"
     inkscape:window-y="0"
     inkscape:window-maximized="1"
     inkscape:current-layer="svg82" />
  <linearGradient
     id="ruby-original-a"
     gradientUnits="userSpaceOnUse"
     x1="157.08"
     y1="2382.05"
     x2="131.68201"
     y2="2426.8921"
     gradientTransform="matrix(1,0,0,-1,-47.5,2517)">
    <stop
       offset="0"
       stop-color="#FB7655"
       id="stop1" />
    <stop
       offset="0"
       stop-color="#FB7655"
       id="stop2" />
    <stop
       offset=".41"
       stop-color="#E42B1E"
       id="stop3" />
    <stop
       offset=".99"
       stop-color="#900"
       id="stop4" />
    <stop
       offset="1"
       stop-color="#900"
       id="stop5" />
  </linearGradient>
  <path
     fill="url(#ruby-original-a)"
     d="m 97.078,83.214 -68.738,40.817 89.003,-6.04 6.855,-89.745 z"
     id="path5"
     style="fill:url(#ruby-original-a)" />
  <linearGradient
     id="ruby-original-b"
     gradientUnits="userSpaceOnUse"
     x1="169.731"
     y1="2419.72"
     x2="136.998"
     y2="2441.6851"
     gradientTransform="matrix(1,0,0,-1,-47.5,2517)">
    <stop
       offset="0"
       stop-color="#871101"
       id="stop6" />
    <stop
       offset="0"
       stop-color="#871101"
       id="stop7" />
    <stop
       offset=".99"
       stop-color="#911209"
       id="stop8" />
    <stop
       offset="1"
       stop-color="#911209"
       id="stop9" />
  </linearGradient>
  <path
     fill="url(#ruby-original-b)"
     d="M 117.488,117.93 109.839,65.131 89.002,92.645 Z"
     id="path9"
     style="fill:url(#ruby-original-b)" />
  <linearGradient
     id="ruby-original-c"
     gradientUnits="userSpaceOnUse"
     x1="143.54201"
     y1="2380.6899"
     x2="110.81"
     y2="2402.655"
     gradientTransform="matrix(1,0,0,-1,-47.5,2517)">
    <stop
       offset="0"
       stop-color="#871101"
       id="stop10" />
    <stop
       offset="0"
       stop-color="#871101"
       id="stop11" />
    <stop
       offset=".99"
       stop-color="#911209"
       id="stop12" />
    <stop
       offset="1"
       stop-color="#911209"
       id="stop13" />
  </linearGradient>
  <path
     fill="url(#ruby-original-c)"
     d="m 117.592,117.93 -56.044,-4.399 -32.91,10.385 z"
     id="path13"
     style="fill:url(#ruby-original-c)" />
  <linearGradient
     id="ruby-original-d"
     gradientUnits="userSpaceOnUse"
     x1="74.817001"
     y1="2435.6221"
     x2="79.890999"
     y2="2402.644"
     gradientTransform="matrix(1,0,0,-1,-47.5,2517)">
    <stop
       offset="0"
       stop-color="#fff"
       id="stop14" />
    <stop
       offset="0"
       stop-color="#fff"
       id="stop15" />
    <stop
       offset=".23"
       stop-color="#E57252"
       id="stop16" />
    <stop
       offset=".46"
       stop-color="#DE3B20"
       id="stop17" />
    <stop
       offset=".99"
       stop-color="#A60003"
       id="stop18" />
    <stop
       offset="1"
       stop-color="#A60003"
       id="stop19" />
  </linearGradient>
  <path
     fill="url(#ruby-original-d)"
     d="M 28.717,123.928 42.718,78.061 11.908,84.649 Z"
     id="path19"
     style="fill:url(#ruby-original-d)" />
  <linearGradient
     id="ruby-original-e"
     gradientUnits="userSpaceOnUse"
     x1="109.719"
     y1="2466.4131"
     x2="111.589"
     y2="2432.7571"
     gradientTransform="matrix(1,0,0,-1,-47.5,2517)">
    <stop
       offset="0"
       stop-color="#fff"
       id="stop20" />
    <stop
       offset="0"
       stop-color="#fff"
       id="stop21" />
    <stop
       offset=".23"
       stop-color="#E4714E"
       id="stop22" />
    <stop
       offset=".56"
       stop-color="#BE1A0D"
       id="stop23" />
    <stop
       offset=".99"
       stop-color="#A80D00"
       id="stop24" />
    <stop
       offset="1"
       stop-color="#A80D00"
       id="stop25" />
  </linearGradient>
  <path
     fill="url(#ruby-original-e)"
     d="M 88.996,92.797 76.114,42.337 39.248,76.895 Z"
     id="path25"
     style="fill:url(#ruby-original-e)" />
  <linearGradient
     id="ruby-original-f"
     gradientUnits="userSpaceOnUse"
     x1="140.69099"
     y1="2497.5229"
     x2="146.289"
     y2="2473.4009"
     gradientTransform="matrix(1,0,0,-1,-47.5,2517)">
    <stop
       offset="0"
       stop-color="#fff"
       id="stop26" />
    <stop
       offset="0"
       stop-color="#fff"
       id="stop27" />
    <stop
       offset=".18"
       stop-color="#E46342"
       id="stop28" />
    <stop
       offset=".4"
       stop-color="#C82410"
       id="stop29" />
    <stop
       offset=".99"
       stop-color="#A80D00"
       id="stop30" />
    <stop
       offset="1"
       stop-color="#A80D00"
       id="stop31" />
  </linearGradient>
  <path
     fill="url(#ruby-original-f)"
     d="M 121.275,43.047 86.426,14.585 76.722,45.958 Z"
     id="path31"
     style="fill:url(#ruby-original-f)" />
  <linearGradient
     id="ruby-original-g"
     gradientUnits="userSpaceOnUse"
     x1="123.6"
     y1="2506.0181"
     x2="147.71899"
     y2="2518.0769"
     gradientTransform="matrix(1,0,0,-1,-47.5,2517)">
    <stop
       offset="0"
       stop-color="#fff"
       id="stop32" />
    <stop
       offset="0"
       stop-color="#fff"
       id="stop33" />
    <stop
       offset=".54"
       stop-color="#C81F11"
       id="stop34" />
    <stop
       offset=".99"
       stop-color="#BF0905"
       id="stop35" />
    <stop
       offset="1"
       stop-color="#BF0905"
       id="stop36" />
  </linearGradient>
  <path
     fill="url(#ruby-original-g)"
     d="M 104.978,4.437 84.481,15.764 71.551,4.285 Z"
     id="path36"
     style="fill:url(#ruby-original-g)" />
  <linearGradient
     id="ruby-original-h"
     gradientUnits="userSpaceOnUse"
     x1="53.674"
     y1="2444.0281"
     x2="55.66"
     y2="2424.1531"
     gradientTransform="matrix(1,0,0,-1,-47.5,2517)">
    <stop
       offset="0"
       stop-color="#fff"
       id="stop37" />
    <stop
       offset="0"
       stop-color="#fff"
       id="stop38" />
    <stop
       offset=".31"
       stop-color="#DE4024"
       id="stop39" />
    <stop
       offset=".99"
       stop-color="#BF190B"
       id="stop40" />
    <stop
       offset="1"
       stop-color="#BF190B"
       id="stop41" />
  </linearGradient>
  <path
     fill="url(#ruby-original-h)"
     d="M 3.802,100.034 12.388,84.375 5.442,65.72 Z"
     id="path41"
     style="fill:url(#ruby-original-h)" />
  <path
     fill="#ffffff"
     d="M 4.981,65.131 11.968,84.952 42.333,78.14 77,45.922 86.783,14.847 71.38,3.969 45.19,13.771 C 36.938,21.446 20.927,36.631 20.35,36.917 19.777,37.208 9.775,56.112 4.981,65.131 Z"
     id="path42" />
  <linearGradient
     id="ruby-original-i"
     gradientUnits="userSpaceOnUse"
     x1="40.026001"
     y1="2418.781"
     x2="133.345"
     y2="2514.739"
     gradientTransform="matrix(1,0,0,-1,-47.5,2517)">
    <stop
       offset="0"
       stop-color="#BD0012"
       id="stop42" />
    <stop
       offset="0"
       stop-color="#BD0012"
       id="stop43" />
    <stop
       offset=".07"
       stop-color="#fff"
       id="stop44" />
    <stop
       offset=".17"
       stop-color="#fff"
       id="stop45" />
    <stop
       offset=".27"
       stop-color="#C82F1C"
       id="stop46" />
    <stop
       offset=".33"
       stop-color="#820C01"
       id="stop47" />
    <stop
       offset=".46"
       stop-color="#A31601"
       id="stop48" />
    <stop
       offset=".72"
       stop-color="#B31301"
       id="stop49" />
    <stop
       offset=".99"
       stop-color="#E82609"
       id="stop50" />
    <stop
       offset="1"
       stop-color="#E82609"
       id="stop51" />
  </linearGradient>
  <path
     fill="url(#ruby-original-i)"
     d="M 29.519,29.521 C 47.401,11.791 70.456,1.314 79.304,10.241 88.147,19.167 78.77,40.861 60.886,58.586 43.002,76.311 20.233,87.365 11.393,78.438 2.544,69.518 11.635,47.247 29.519,29.521 Z"
     id="path51"
     style="fill:url(#ruby-original-i)" />
  <linearGradient
     id="ruby-original-j"
     gradientUnits="userSpaceOnUse"
     x1="111.507"
     y1="2409.1021"
     x2="83.398003"
     y2="2416.0391"
     gradientTransform="matrix(1,0,0,-1,-47.5,2517)">
    <stop
       offset="0"
       stop-color="#8C0C01"
       id="stop52" />
    <stop
       offset="0"
       stop-color="#8C0C01"
       id="stop53" />
    <stop
       offset=".54"
       stop-color="#990C00"
       id="stop54" />
    <stop
       offset=".99"
       stop-color="#A80D0E"
       id="stop55" />
    <stop
       offset="1"
       stop-color="#A80D0E"
       id="stop56" />
  </linearGradient>
  <path
     fill="url(#ruby-original-j)"
     d="m 28.717,123.909 13.89,-46.012 46.135,14.82 c -16.68,15.642 -35.233,28.865 -60.025,31.192 z"
     id="path56"
     style="fill:url(#ruby-original-j)" />
  <linearGradient
     id="ruby-original-k"
     gradientUnits="userSpaceOnUse"
     x1="159.785"
     y1="2442.8369"
     x2="134.814"
     y2="2465.217"
     gradientTransform="matrix(1,0,0,-1,-47.5,2517)">
    <stop
       offset="0"
       stop-color="#7E110B"
       id="stop57" />
    <stop
       offset="0"
       stop-color="#7E110B"
       id="stop58" />
    <stop
       offset=".99"
       stop-color="#9E0C00"
       id="stop59" />
    <stop
       offset="1"
       stop-color="#9E0C00"
       id="stop60" />
  </linearGradient>
  <path
     fill="url(#ruby-original-k)"
     d="M 77.062,45.831 88.906,92.742 C 102.84,78.092 115.345,62.341 121.469,42.859 Z"
     id="path60"
     style="fill:url(#ruby-original-k)" />
  <linearGradient
     id="ruby-original-l"
     gradientUnits="userSpaceOnUse"
     x1="168.959"
     y1="2483.9009"
     x2="156.521"
     y2="2497.199"
     gradientTransform="matrix(1,0,0,-1,-47.5,2517)">
    <stop
       offset="0"
       stop-color="#79130D"
       id="stop61" />
    <stop
       offset="0"
       stop-color="#79130D"
       id="stop62" />
    <stop
       offset=".99"
       stop-color="#9E120B"
       id="stop63" />
    <stop
       offset="1"
       stop-color="#9E120B"
       id="stop64" />
  </linearGradient>
  <path
     fill="url(#ruby-original-l)"
     d="M 121.348,43.097 C 126.088,28.792 127.181,8.272 104.831,4.462 L 86.492,14.592 Z"
     id="path64"
     style="fill:url(#ruby-original-l)" />
  <path
     fill="#9e1209"
     d="m 3.802,99.828 c 0.656,23.608 17.689,23.959 24.945,24.167 L 11.988,84.855 Z"
     id="path65" />
  <radialGradient
     id="ruby-original-m"
     cx="138.703"
     cy="2464.7891"
     r="30.601"
     gradientTransform="matrix(1,0,0,-1,-47.5,2517)"
     gradientUnits="userSpaceOnUse">
    <stop
       offset="0"
       stop-color="#A80D00"
       id="stop65" />
    <stop
       offset="0"
       stop-color="#A80D00"
       id="stop66" />
    <stop
       offset=".99"
       stop-color="#7E0E08"
       id="stop67" />
    <stop
       offset="1"
       stop-color="#7E0E08"
       id="stop68" />
  </radialGradient>
  <path
     fill="url(#ruby-original-m)"
     d="m 77.128,45.904 c 10.708,6.581 32.286,19.798 32.723,20.041 0.68,0.383 9.304,-14.542 11.261,-22.976 z"
     id="path68"
     style="fill:url(#ruby-original-m)" />
  <radialGradient
     id="ruby-original-n"
     cx="96.324997"
     cy="2424.4651"
     r="40.679001"
     gradientTransform="matrix(1,0,0,-1,-47.5,2517)"
     gradientUnits="userSpaceOnUse">
    <stop
       offset="0"
       stop-color="#A30C00"
       id="stop69" />
    <stop
       offset="0"
       stop-color="#A30C00"
       id="stop70" />
    <stop
       offset=".99"
       stop-color="#800E08"
       id="stop71" />
    <stop
       offset="1"
       stop-color="#800E08"
       id="stop72" />
  </radialGradient>
  <path
     fill="url(#ruby-original-n)"
     d="m 42.589,77.897 18.57,35.828 c 10.98,-5.955 19.579,-13.211 27.454,-20.983 z"
     id="path72"
     style="fill:url(#ruby-original-n)" />
  <linearGradient
     id="ruby-original-o"
     gradientUnits="userSpaceOnUse"
     x1="67.509003"
     y1="2393.115"
     x2="57.373001"
     y2="2427.5061"
     gradientTransform="matrix(1,0,0,-1,-47.5,2517)">
    <stop
       offset="0"
       stop-color="#8B2114"
       id="stop73" />
    <stop
       offset="0"
       stop-color="#8B2114"
       id="stop74" />
    <stop
       offset=".43"
       stop-color="#9E100A"
       id="stop75" />
    <stop
       offset=".99"
       stop-color="#B3100C"
       id="stop76" />
    <stop
       offset="1"
       stop-color="#B3100C"
       id="stop77" />
  </linearGradient>
  <path
     fill="url(#ruby-original-o)"
     d="m 11.914,84.904 -2.631,31.331 c 4.964,6.781 11.794,7.371 18.96,6.842 -5.184,-12.9 -15.538,-38.696 -16.329,-38.173 z"
     id="path77"
     style="fill:url(#ruby-original-o)" />
  <linearGradient
     id="ruby-original-p"
     gradientUnits="userSpaceOnUse"
     x1="145.272"
     y1="2507.0759"
     x2="167.996"
     y2="2497.0449"
     gradientTransform="matrix(1,0,0,-1,-47.5,2517)">
    <stop
       offset="0"
       stop-color="#B31000"
       id="stop78" />
    <stop
       offset="0"
       stop-color="#B31000"
       id="stop79" />
    <stop
       offset=".44"
       stop-color="#910F08"
       id="stop80" />
    <stop
       offset=".99"
       stop-color="#791C12"
       id="stop81" />
    <stop
       offset="1"
       stop-color="#791C12"
       id="stop82" />
  </linearGradient>
  <path
     fill="url(#ruby-original-p)"
     d="m 86.384,14.67 36.891,5.177 C 121.306,11.504 115.26,6.12 104.955,4.437 Z"
     id="path82"
     style="fill:url(#ruby-original-p)" />
</svg>
